!!!OTL: Women de shuiku jiushihao
!!!ARE: Asia, China, Shanxi Dianxiang
!! I, 287
!!!SCT: C2093
!!!YEM: Copyright 1995, estate of Helmut Schaffrath.
**kern
*ICvox
*Ivox
!! Mixed meters:  2/4; 3/4
*M3/4
*k[b-e-]
*B-:
{16ccc
16ccc
16ccc
16ddd
16ccc
16bb-
8gg
=1
8.fff
16ggg
8ddd
8ccc
=2
16bb-
16bb-
16bb-
16ccc
16ddd
16ccc
16aa
16gg
=3
2ff}
=4
{16ff
8dd
16fff
16ddd
16fff
16ddd
16fff
=5
16ccc
16ddd
16ccc
16gg
8.bb-
16gg
=6
16ccc
16ccc
16ccc
16ccc
16ddd
16fff
16aa
16gg
=7
16ff
8ff
16gg}
{16dd
16ff
16dd
16ff
=8
16gg
16aa
16gg
16ff
4gg}
=9
{4ccc
16ddd
16fff
16ddd
16ccc
=10
8bb-
16ddd
16ddd
16ccc
16ddd
16ccc
16ddd
16ccc
16ddd
16ccc
16ddd
=11
*M2/4
8fff
16aa
16gg
16ff
16dd
16ff
16gg
=12
16bb-
16gg
16bb-
16ccc
16gg
16ff
16ff
16dd
=13
2cc}
==
!!!AGN: Xiaodiao, Shuiguaxibaotou
!! Han
!!!ONB: ESAC (Essen Associative Code) Database: SENGANSU
!!!AMT: irregular
!!!AIN: vox
!!!EED: Helmut Schaffrath
!!!EEV: 1.0
*-
